X: 1
T:Far am bi b bithidh bean*
M:4/4
L:1/8
Q:130
C:Stephen P. McNally
R:Strathspey
K:D
|:BA B>A F<A|B/2B/2B B>A B>c d/2c/2B|c<a c>d e>f e>d|c<A dd c<
A|!
|BA B>A F<A| B/2=c/2B B>A B>^c d>B|c<A df e>d|c<a d<A B3 c:|!
|:d>A F<d c>A F<c|BA B>A F<A|B/2B/2B B>A B>c d>B|c<a c>d e>f g<e|!
|d>A F<d c>A F<c|BA B>A F<A| B>c d>B c<a c>d|c<a e<c d3 c:|!
